src/assets/footer/i1.svg

<?xml version="1.0" encoding="UTF-8"?>
<svg width="30px" height="30px" viewBox="0 0 30 30" version="1.1" xmlns="http://www.w3.org/2000/svg" xmlns:xlink="http://www.w3.org/1999/xlink">
    <title>icon / facebook white copy</title>
    <defs>
        <filter color-interpolation-filters="auto" id="filter-1">
            <feColorMatrix in="SourceGraphic" type="matrix" values="0 0 0 0 0.920814 0 0 0 0 0.920814 0 0 0 0 0.920814 0 0 0 1.000000 0"></feColorMatrix>
        </filter>
    </defs>
    <g id="Mobile" stroke="none" stroke-width="1" fill="none" fill-rule="evenodd">
        <g id="Mobile-landing-" transform="translate(-127.000000, -1766.000000)">
            <g id="icon-/-facebook-white-copy" transform="translate(127.000000, 1766.000000)" filter="url(#filter-1)">
                <g id="facebook-circular-logo" transform="translate(0.000000, 0.061588)" fill="#010002" fill-rule="nonzero">
                    <path d="M14.7933529,-2.97864714e-16 C6.62329412,-2.97864714e-16 0,6.62329412 0,14.7933529 C0,22.1209412 5.33329412,28.1894118 12.3261176,29.3645294 L12.3261176,17.8796471 L8.75752941,17.8796471 L8.75752941,13.7467059 L12.3261176,13.7467059 L12.3261176,10.6992353 C12.3261176,7.16329412 14.4857647,5.23641176 17.6405294,5.23641176 C19.1514706,5.23641176 20.4499412,5.349 20.8268824,5.39858824 L20.8268824,9.09458824 L18.6388235,9.09564706 C16.9235294,9.09564706 16.5928235,9.91058824 16.5928235,11.1068824 L16.5928235,13.7445882 L20.6857059,13.7445882 L20.1518824,17.8775294 L16.5928235,17.8775294 L16.5928235,29.4633529 C23.9121176,28.5725294 29.5865294,22.3494706 29.5865294,14.7891176 C29.5865294,6.62329412 22.9632353,-2.97864714e-16 14.7933529,-2.97864714e-16 Z" id="Path"></path>
                </g>
            </g>
        </g>
    </g>
</svg>

<svg xmlns="http://www.w3.org/2000/svg" width="30" height="30" viewBox="0 0 30 30"><g><g><path fill="#fff" d="M14.793.059C6.623.059 0 6.682 0 14.852c0 7.327 5.333 13.396 12.326 14.571V17.938H8.758v-4.133h3.568v-3.047c0-3.536 2.16-5.463 5.315-5.463 1.51 0 2.809.113 3.186.162v3.696l-2.188.001c-1.715 0-2.046.815-2.046 2.011v2.638h4.093l-.534 4.133h-3.56v11.586c7.32-.89 12.995-7.114 12.995-14.674 0-8.166-6.624-14.79-14.794-14.79z"/></g></g></svg>
